la/autoprefixer.svg

<svg xmlns="http://www.w3.org/2000/svg" viewBox="0 0 32 32" height="1em" width="1em">
  <path d="M 15.927734 5 L 8.6679688 27 L 12.164062 27 L 13.400391 23 L 18.605469 23 L 19.837891 27 L 23.333984 27 L 15.927734 5 z M 15.96875 14.689453 L 16.041016 14.689453 L 17.986328 21 L 14.017578 21 L 15.96875 14.689453 z M 9.265625 21 L 1.4707031 21.558594 L 1 22.667969 L 8.5585938 23 L 9.265625 21 z M 22.697266 21 L 23.417969 23 L 31 22.667969 L 30.529297 21.558594 L 22.697266 21 z"/>
</svg>

<svg xmlns="http://www.w3.org/2000/svg" viewBox="0 0 32 32" height="1em" width="1em">
  <path d="m15.928 5-7.26 22h3.496l1.236-4h5.205l1.233 4h3.496L15.928 5zm.04 9.69h.073L17.986 21h-3.968l1.95-6.31zM9.267 21l-7.795.559L1 22.668 8.559 23l.707-2zm13.431 0 .721 2L31 22.668l-.47-1.11L22.696 21z"/>
</svg>
